svgs/sharp-regular/child.svg

<svg xmlns="http://www.w3.org/2000/svg" viewBox="0 0 320 512"><!--! Font Awesome Pro 6.6.0 by @fontawesome - https://fontawesome.com License - https://fontawesome.com/license (Commercial License) Copyright 2024 Fonticons, Inc. --><path d="M160 96a24 24 0 1 0 0-48 24 24 0 1 0 0 48zm0-96a72 72 0 1 1 0 144A72 72 0 1 1 160 0zM88.9 160l13.6 0L216 160l13.4 0 7 11.4 68.8 112 12.6 20.4L276.9 329l-12.6-20.4L240 268.9 240 488l0 24-48 0 0-24 0-104-64 0 0 104 0 24-48 0 0-24 0-220L55.8 308.4 43.4 328.9 2.3 304.2l12.4-20.6 67.3-112 7-11.6zM128 336l64 0 0-128-64 0 0 128z"/></svg>

<svg xmlns="http://www.w3.org/2000/svg" viewBox="0 0 320 512"><!--! Font Awesome Pro 6.4.0 by @fontawesome - https://fontawesome.com License - https://fontawesome.com/license (Commercial License) Copyright 2023 Fonticons, Inc. --><path d="M160 96a24 24 0 1 0 0-48 24 24 0 1 0 0 48zm0-96a72 72 0 1 1 0 144A72 72 0 1 1 160 0zM88.9 160h13.6H216h13.4l7 11.4 68.8 112 12.6 20.4L276.9 329l-12.6-20.4L240 268.9V488v24H192V488 384H128V488v24H80V488 268L55.8 308.4 43.4 328.9 2.3 304.2l12.4-20.6 67.3-112 7-11.6zM128 336h64V208H128V336z"/></svg>
